assets/2023/icons/folderControllers.svg

<!-- Copyright 2000-2023 JetBrains s.r.o. and contributors. Use of this source code is governed by the Apache 2.0 license. -->
<svg width="16" height="16" viewBox="0 0 16 16" fill="none" xmlns="http://www.w3.org/2000/svg">
<path d="M11.9976 13C12.5498 13 12.9976 12.5523 12.9976 12C12.9976 11.4477 12.5498 11 11.9976 11C11.4453 11 10.9976 11.4477 10.9976 12C10.9976 12.5523 11.4453 13 11.9976 13Z" fill="#3574F0"/>
<path fill-rule="evenodd" clip-rule="evenodd" d="M13.1192 15.6756C13.046 15.8707 12.8594 16 12.651 16H11.344C11.1356 16 10.949 15.8707 10.8758 15.6756L10.6263 15.0102C10.5424 14.7865 10.3119 14.6534 10.0761 14.6926L9.37521 14.8092C9.16961 14.8434 8.96437 14.7464 8.86016 14.5659L8.20666 13.4341C8.10245 13.2536 8.12113 13.0273 8.25355 12.8664L8.70498 12.3177C8.85681 12.1331 8.85681 11.8669 8.70498 11.6824L8.25353 11.1336C8.12111 10.9727 8.10243 10.7464 8.20664 10.5659L8.86014 9.43405C8.96435 9.25355 9.1696 9.15663 9.37519 9.19083L10.0761 9.30742C10.3119 9.34664 10.5424 9.21353 10.6263 8.98976L10.8758 8.32444C10.949 8.12929 11.1356 8 11.344 8H12.651C12.8594 8 13.046 8.12929 13.1192 8.32444L13.3687 8.98976C13.4526 9.21353 13.6831 9.34664 13.9189 9.30742L14.6198 9.19083C14.8254 9.15663 15.0307 9.25355 15.1349 9.43405L15.7884 10.5659C15.8926 10.7464 15.8739 10.9727 15.7415 11.1336L15.29 11.6824C15.1382 11.8669 15.1382 12.1331 15.29 12.3177L15.7415 12.8664C15.8739 13.0273 15.8926 13.2536 15.7883 13.4341L15.1348 14.5659C15.0306 14.7464 14.8254 14.8434 14.6198 14.8092L13.9189 14.6926C13.6831 14.6534 13.4526 14.7865 13.3687 15.0102L13.1192 15.6756ZM11.6905 15H12.3045L12.4323 14.6591C12.6841 13.9878 13.3757 13.5885 14.0829 13.7061L14.4421 13.7659L14.7491 13.2341L14.5178 12.953C14.0623 12.3993 14.0623 11.6007 14.5178 11.047L14.7491 10.7659L14.4421 10.2341L14.0829 10.2939C13.3757 10.4115 12.6841 10.0122 12.4323 9.34088L12.3045 9H11.6905L11.5627 9.34088C11.3109 10.0122 10.6193 10.4115 9.91205 10.2939L9.55291 10.2341L9.24591 10.7659L9.47722 11.047C9.93273 11.6007 9.93273 12.3993 9.47722 12.953L9.24593 13.2341L9.55293 13.7659L9.91205 13.7061C10.6193 13.5885 11.3109 13.9878 11.5627 14.6591L11.6905 15Z" fill="#3574F0"/>
<path fill-rule="evenodd" clip-rule="evenodd" d="M12.3086 15H11.6946L11.5668 14.6591C11.315 13.9878 10.6234 13.5885 9.91614 13.7061L9.55702 13.7659L9.25002 13.2341L9.48131 12.953C9.93681 12.3993 9.93681 11.6007 9.48131 11.047L9.25 10.7659L9.557 10.2341L9.91614 10.2939C10.6234 10.4115 11.315 10.0122 11.5668 9.34088L11.6946 9H12.3086L12.4364 9.34088C12.6882 10.0122 13.3798 10.4115 14.087 10.2939L14.4462 10.2341L14.7532 10.7659L14.5219 11.047C14.0664 11.6007 14.0664 12.3993 14.5219 12.953L14.7532 13.2341L14.4462 13.7659L14.087 13.7061C13.3798 13.5885 12.6882 13.9878 12.4364 14.6591L12.3086 15ZM13.0016 12C13.0016 12.5523 12.5539 13 12.0016 13C11.4494 13 11.0016 12.5523 11.0016 12C11.0016 11.4477 11.4494 11 12.0016 11C12.5539 11 13.0016 11.4477 13.0016 12Z" fill="#EDF3FF"/>
<path d="M1 3.86667C1 2.83574 1.73127 2 2.63333 2H6.1217C6.39413 2 6.65477 2.11115 6.84336 2.30775L8.46667 4L13 4C14.1046 4 15 4.89543 15 6V7.99963C14.1643 7.37194 13.1256 7 12 7C9.23858 7 7 9.23858 7 12C7 12.7111 7.14845 13.3875 7.41604 14H2.63333C1.73127 14 1 13.1643 1 12.1333V3.86667Z" fill="#EBECF0"/>
<path d="M2.63333 3L6.1217 3L8.04022 5H13C13.5523 5 14 5.44771 14 6V7.41604C14.357 7.57202 14.6923 7.76849 15 7.99963V6C15 4.89543 14.1046 4 13 4L8.46667 4L6.84336 2.30775C6.65477 2.11115 6.39413 2 6.1217 2H2.63333C1.73127 2 1 2.83574 1 3.86667V12.1333C1 13.1643 1.73127 14 2.63333 14H7.41604C7.27732 13.6825 7.17062 13.3478 7.10002 13H2.63333C2.40481 13 2 12.7416 2 12.1333V3.86667C2 3.25841 2.40481 3 2.63333 3Z" fill="#6C707E"/>
</svg>

<svg xmlns="http://www.w3.org/2000/svg" width="16" height="16" fill="none" viewBox="0 0 16 16"><path fill="#3574F0" d="M11.998 13a1 1 0 1 0 0-2 1 1 0 0 0 0 2"/><path fill="#3574F0" fill-rule="evenodd" d="M13.12 15.676a.5.5 0 0 1-.469.324h-1.307a.5.5 0 0 1-.468-.324l-.25-.666a.5.5 0 0 0-.55-.317l-.7.116a.5.5 0 0 1-.516-.243l-.653-1.132a.5.5 0 0 1 .047-.568l.451-.548a.5.5 0 0 0 0-.636l-.451-.548a.5.5 0 0 1-.047-.568l.653-1.132a.5.5 0 0 1 .515-.243l.701.116a.5.5 0 0 0 .55-.317l.25-.666A.5.5 0 0 1 11.344 8h1.307a.5.5 0 0 1 .468.324l.25.666a.5.5 0 0 0 .55.317l.7-.116a.5.5 0 0 1 .516.243l.653 1.132a.5.5 0 0 1-.046.568l-.452.548a.5.5 0 0 0 0 .636l.452.548a.5.5 0 0 1 .046.568l-.653 1.132a.5.5 0 0 1-.515.243l-.701-.116a.5.5 0 0 0-.55.317zM11.69 15h.615l.127-.34a1.5 1.5 0 0 1 1.65-.954l.36.06.307-.532-.231-.281a1.5 1.5 0 0 1 0-1.906l.231-.281-.307-.532-.36.06a1.5 1.5 0 0 1-1.65-.953L12.305 9h-.614l-.128.34a1.5 1.5 0 0 1-1.651.954l-.36-.06-.306.532.231.281a1.5 1.5 0 0 1 0 1.906l-.231.281.307.532.359-.06a1.5 1.5 0 0 1 1.65.953z" clip-rule="evenodd"/><path fill="#EDF3FF" fill-rule="evenodd" d="M12.309 15h-.614l-.128-.34a1.5 1.5 0 0 0-1.65-.954l-.36.06-.307-.532.231-.281a1.5 1.5 0 0 0 0-1.906l-.231-.281.307-.532.36.06a1.5 1.5 0 0 0 1.65-.953L11.695 9h.614l.127.34a1.5 1.5 0 0 0 1.651.954l.36-.06.306.532-.231.281a1.5 1.5 0 0 0 0 1.906l.231.281-.307.532-.359-.06a1.5 1.5 0 0 0-1.65.953zm.693-3a1 1 0 1 1-2 0 1 1 0 0 1 2 0" clip-rule="evenodd"/><path fill="#EBECF0" d="M1 3.867C1 2.836 1.731 2 2.633 2h3.489a1 1 0 0 1 .721.308L8.467 4H13a2 2 0 0 1 2 2v2a5 5 0 0 0-7.584 6H2.633C1.731 14 1 13.164 1 12.133z"/><path fill="#6C707E" d="M2.633 3h3.489L8.04 5H13a1 1 0 0 1 1 1v1.416q.537.235 1 .584V6a2 2 0 0 0-2-2H8.467L6.843 2.308A1 1 0 0 0 6.122 2H2.633C1.731 2 1 2.836 1 3.867v8.266C1 13.164 1.731 14 2.633 14h4.783a5 5 0 0 1-.316-1H2.633C2.405 13 2 12.742 2 12.133V3.867C2 3.258 2.405 3 2.633 3"/></svg>
